X: 272
T: O'Reilly's Lamentation
B: O'Neill's 272
N: "Slow"
N: "Collected by F.O'Neill"
Z: 1997 by John Chambers <jc@trillian.mit.edu>
M: 3/4
L: 1/8
K:G
(d>c) \
| (BG B)(c/d/) (c>A) | (F>A) "p"G2- G ((3d/e/f/) | ">"g2 (e>g) (f>d) | (ec) d2- d ((3d/e/f/) |
| ">"g2 e>g fd | Bd "p"e2- e (g>e) | (dB) .G(B/d/) (cA) | (F>A) G2- G ((3d/e/f/) |
| ">"g2 (e>g) (f>d) | (Bd) .e(e/f/) (g/f/)(g/e/) | (dB) G(B/d/) cA | (F>A) G2- G ||


